src/images/footer-word.svg

<svg width="30" height="30" viewBox="0 0 30 30" fill="none" xmlns="http://www.w3.org/2000/svg">
<g clip-path="url(#clip0_215_779)">
<path d="M29.7656 14.2195C29.7656 22.2276 23.2738 28.7195 15.2656 28.7195C7.2575 28.7195 0.765625 22.2276 0.765625 14.2195C0.765625 6.21135 7.2575 -0.280518 15.2656 -0.280518C23.2738 -0.280518 29.7656 6.21135 29.7656 14.2195Z" fill="#014C69"/>
<path fill-rule="evenodd" clip-rule="evenodd" d="M7.9043 14.2195C7.9043 10.1606 11.2067 6.85864 15.2652 6.85864C19.3241 6.85864 22.6265 10.1606 22.6265 14.2195C22.6265 18.279 19.3241 21.5804 15.2652 21.5804C11.2067 21.5804 7.9043 18.2784 7.9043 14.2195ZM21.9771 14.5089C21.9837 14.4129 21.9902 14.3172 21.9902 14.2197C21.9902 11.8198 20.7225 9.71495 18.8265 8.52512C18.8074 8.53576 18.7857 8.54899 18.7626 8.56309C18.6581 8.62685 18.5242 8.70853 18.466 8.64982C18.3901 8.57396 18.2119 8.46433 18.2119 8.46433C18.3646 8.36249 17.9079 8.19363 17.9079 8.19363L17.3764 8.23623H16.9966C16.9632 8.23623 16.9153 8.22581 16.8615 8.21408C16.792 8.19897 16.7126 8.18168 16.6412 8.18168C16.5531 8.18168 16.3771 8.23852 16.2446 8.28132C16.1879 8.29963 16.1391 8.31538 16.1086 8.323C16.0689 8.33289 16.0088 8.3593 15.9445 8.38756L15.9445 8.38756C15.8468 8.43055 15.7392 8.47784 15.6784 8.47784C15.5776 8.47784 15.4249 8.66904 15.4249 8.66904C15.4249 8.66904 15.2477 8.99326 15.4004 8.94234C15.5516 8.89142 15.7548 8.88882 15.7792 8.9652C15.7917 9.00145 15.8097 9.04924 15.828 9.09758L15.828 9.09768L15.828 9.0977L15.828 9.09772C15.8477 9.14981 15.8676 9.20254 15.8811 9.24214C15.906 9.31799 16.2609 9.34241 16.2609 9.34241C16.2609 9.34241 16.3118 9.21564 16.3876 9.11432C16.4635 9.013 16.5394 8.88622 16.5394 8.88622C16.5394 8.88622 16.6661 9.13978 16.6916 9.21564C16.7165 9.29202 16.6407 9.51959 16.6407 9.51959C16.6407 9.51959 16.3622 9.69677 16.2858 9.69677C16.2094 9.69677 15.7782 9.31644 15.7782 9.31644C15.6265 9.36735 15.4997 9.44373 15.4997 9.44373C15.3225 9.62143 15.1448 9.77314 15.1448 9.77314C15.1448 9.77314 14.9915 9.82406 14.8907 9.89992C14.8453 9.93395 14.7762 9.95596 14.7084 9.97757C14.625 10.0041 14.5434 10.0301 14.5099 10.0771C14.3836 10.2543 14.5587 10.3811 14.5587 10.3811L14.4029 10.5837L14.2943 10.6601L13.9238 10.7364L13.7019 10.7739C13.7269 10.8497 13.6775 11.0908 13.6775 11.0908V11.5205C13.6775 11.5205 14.0433 11.6218 14.1197 11.6218C14.1308 11.6218 14.1443 11.6224 14.1597 11.623C14.2488 11.6267 14.3986 11.6328 14.4855 11.5459C14.5857 11.4446 14.751 11.2165 14.8014 11.1407C14.8518 11.0648 14.9204 10.989 15.0731 10.938C15.1615 10.9086 15.2055 10.8704 15.242 10.8387C15.268 10.8162 15.2903 10.7969 15.322 10.7863C15.3984 10.7609 15.6966 10.7099 15.6966 10.7099C15.6966 10.7099 15.8727 10.8372 15.9481 10.8876C15.9568 10.8936 15.9585 10.9027 15.9606 10.9143C15.9672 10.9503 15.9781 11.0097 16.2188 11.0679V11.2685L16.556 11.243L16.4032 11.0404L16.3773 11.0336L16.0837 10.7364L16.0619 10.5083C16.0619 10.5083 16.3741 10.6855 16.4755 10.7364C16.5768 10.7868 16.7929 10.9386 16.7929 10.9386L16.9431 11.2929L17.1457 11.5402C17.0776 11.4555 16.9098 11.2165 17.1717 11.2165C17.1717 11.2165 17.4128 11.242 17.4886 11.2165C17.565 11.1916 17.6336 11.1667 17.7344 11.1157C17.7838 11.0909 17.7755 11.036 17.7657 10.9715C17.7554 10.9039 17.7436 10.8258 17.7952 10.7609C17.897 10.6341 18.029 10.5832 18.1048 10.5582C18.1812 10.5328 18.4363 10.406 18.4363 10.406L18.7169 10.4569C18.5907 10.5582 18.4395 10.7099 18.5403 10.685C18.6416 10.6595 18.8707 10.7863 18.9715 10.8622C19.0728 10.938 18.997 11.1157 18.997 11.1157C18.997 11.1157 18.7185 11.0903 18.5413 11.0648C18.3636 11.0399 18.0846 11.0903 18.0846 11.0903L17.857 11.2165C17.857 11.2165 17.7048 11.2674 17.7302 11.3937C17.7552 11.5205 17.857 11.6732 17.9583 11.7995C17.981 11.8281 18.0024 11.858 18.0229 11.8865L18.0229 11.8866L18.0229 11.8866L18.023 11.8866C18.0935 11.9848 18.1525 12.067 18.2108 12.0276C18.2877 11.9767 18.5413 11.825 18.5413 11.825C18.5413 11.825 18.4899 12.0021 18.5158 12.1289C18.5413 12.2552 18.5413 12.4329 18.5413 12.4329C18.5413 12.4329 18.2877 12.4329 18.3636 12.4843C18.4206 12.5217 18.4964 12.6409 18.549 12.7237C18.5659 12.7503 18.5804 12.7731 18.5912 12.7883C18.8447 13.1426 19.3768 13.9282 19.4277 14.0295C19.4489 14.0727 19.4569 14.1254 19.4649 14.1773C19.4757 14.2477 19.4862 14.3168 19.529 14.3589C19.6807 14.5112 19.9847 14.3589 20.0605 14.3085C20.0843 14.293 20.1253 14.2699 20.1727 14.2431L20.1728 14.2431L20.1728 14.2431L20.1728 14.2431L20.1728 14.2431L20.1728 14.2431L20.1728 14.2431C20.2775 14.184 20.4136 14.1072 20.4658 14.055L20.4666 14.0542C20.4966 14.0246 20.5108 14.0106 20.5265 13.9982C20.5407 13.9869 20.5561 13.977 20.5855 13.958L20.5855 13.958L20.5856 13.958L20.5858 13.9578L20.5859 13.9578C20.6059 13.9449 20.6324 13.9278 20.6695 13.9033C20.8212 13.802 20.9225 13.7256 20.8467 13.6497C20.7708 13.5739 20.6191 13.2948 20.6191 13.2948C20.3899 13.3458 20.1624 13.219 20.1624 13.1431C20.1624 13.0673 19.9597 12.7633 19.9597 12.7633C19.9597 12.7633 19.9847 12.7129 20.1624 12.8137C20.2298 12.852 20.2933 12.9049 20.3545 12.9558L20.3545 12.9558L20.3545 12.9558C20.4552 13.0396 20.5496 13.1182 20.6445 13.1182C20.785 13.1182 20.86 13.1614 21.0115 13.2487L21.0493 13.2704C21.1473 13.326 21.2145 13.3895 21.272 13.4439C21.3187 13.488 21.359 13.5261 21.4042 13.5489C21.5055 13.5998 21.6577 13.8025 21.6577 13.8025C21.6577 13.8025 21.81 14.1573 21.8349 14.2592C21.8461 14.3029 21.8805 14.3846 21.9163 14.4692C21.9353 14.5142 21.9546 14.5601 21.971 14.6016C21.9729 14.5707 21.975 14.5399 21.9771 14.5091L21.9771 14.5091L21.9771 14.509L21.9771 14.5089ZM9.89897 10.2539C9.89897 10.2852 9.88574 10.3092 9.87157 10.3349C9.83991 10.3923 9.80351 10.4584 9.89897 10.6342C10.0756 10.9636 9.92391 11.1159 9.92391 11.1159C9.92391 11.1159 9.49266 11.4198 9.4168 11.4707C9.34094 11.5216 9.1383 11.8001 9.26456 11.7238C9.39134 11.6479 9.54306 11.572 9.4168 11.7747C9.37944 11.8345 9.33328 11.9053 9.28547 11.9787L9.28543 11.9787L9.28542 11.9787C9.17099 12.1542 9.04707 12.3443 9.01153 12.434C8.9932 12.4803 8.94802 12.5499 8.89793 12.627C8.81026 12.762 8.70757 12.9201 8.70757 13.017C8.70757 13.0835 8.68822 13.1791 8.66856 13.2763C8.64323 13.4014 8.61738 13.5291 8.63172 13.6005C8.64886 13.6888 8.59275 13.9491 8.54858 14.0561C8.58288 12.6315 9.06245 11.3185 9.85428 10.2445C9.88026 10.2471 9.89897 10.2539 9.89897 10.2539ZM12.8606 7.94541C12.0594 8.25404 11.333 8.71023 10.7131 9.28229L10.7123 9.28448C10.7012 9.31329 10.6906 9.34063 10.6835 9.36698C10.6581 9.46882 10.8617 9.39244 10.8617 9.39244L11.0893 9.49376L11.3683 9.39244C11.3683 9.39244 11.4447 9.2402 11.6214 9.11394C11.7487 9.02273 11.772 8.98354 11.8029 8.93156C11.8151 8.911 11.8285 8.88844 11.85 8.85987C11.8875 8.80999 11.8879 8.8096 11.9186 8.77894L11.9186 8.77894C11.9499 8.74763 12.0127 8.68478 12.1789 8.50552C12.5088 8.15013 12.686 8.15065 12.686 8.15065C12.686 8.15065 12.7816 8.04673 12.8606 7.94541ZM13.7508 9.87395L13.65 9.72224L13.7508 9.49414L13.995 9.59182V9.13927L14.2283 9.01301L14.4221 9.29151L14.7203 9.62144L14.5224 9.77316L13.9945 9.87447V9.60585L13.7508 9.87395ZM17.299 12.332C17.299 12.332 17.1051 12.2094 17.0459 12.2562C16.7924 12.4593 16.2089 12.332 16.0837 12.2806C15.9564 12.2297 15.8805 12.1543 15.8805 12.0779C15.8805 12.0016 15.7662 11.6342 15.7662 11.6342C15.7662 11.6342 15.5189 11.6784 15.443 11.6784C15.3672 11.6784 15.1676 11.5989 15.1676 11.5989C15.1676 11.5989 14.9151 11.6228 14.8138 11.6737C14.7135 11.7246 14.5109 11.8 14.435 11.8254C14.3592 11.8509 14.1571 11.8758 14.1571 11.8758C13.929 11.7745 13.7518 12.0275 13.7004 12.1289C13.6805 12.1694 13.6524 12.2018 13.6258 12.2325C13.5855 12.2789 13.5486 12.3214 13.5486 12.3824C13.5486 12.4843 13.3709 12.636 13.2951 12.6864C13.2804 12.6963 13.258 12.71 13.2309 12.7267L13.2308 12.7267C13.1187 12.7955 12.9259 12.9137 12.8649 13.0158C12.7885 13.1426 12.7126 13.2948 12.6872 13.4216C12.6622 13.5483 12.6622 13.6497 12.6622 13.8268C12.6622 13.8901 12.659 13.9438 12.656 13.9937C12.6505 14.0833 12.6459 14.1604 12.6622 14.2586C12.6867 14.4098 12.9407 14.7901 13.0415 14.9174C13.1434 15.0442 13.2701 15.1959 13.3974 15.2718C13.5232 15.3482 13.7014 15.4999 13.7014 15.4999C13.7014 15.4999 13.8022 15.6516 14.0043 15.5757C14.0891 15.5439 14.1736 15.5254 14.2563 15.5072L14.2563 15.5072L14.2563 15.5072C14.3722 15.4818 14.4843 15.4572 14.5883 15.398C14.766 15.2972 15.0445 15.17 15.0445 15.3222C15.0445 15.4744 15.1453 15.5763 15.2975 15.5253C15.3217 15.5173 15.3484 15.5073 15.3762 15.4969L15.3762 15.4969L15.3762 15.4969C15.5232 15.442 15.6988 15.3763 15.6773 15.5253C15.6615 15.6383 15.6864 15.7713 15.7066 15.8796C15.7182 15.9417 15.7283 15.9957 15.7283 16.033C15.7283 16.0533 15.7272 16.0736 15.7262 16.0938C15.7221 16.1734 15.7182 16.2504 15.7787 16.3109C15.8023 16.3346 15.8385 16.3633 15.877 16.3939C15.9618 16.4613 16.0582 16.5378 16.0582 16.59C16.0582 16.6653 16.0826 16.9188 16.1335 17.0207C16.1845 17.1225 16.2349 17.2742 16.1839 17.3756C16.1335 17.4769 16.0312 17.7559 16.0312 17.7559C16.0312 17.7559 15.9782 17.9835 16.0036 18.0593C16.0291 18.1362 16.0759 18.237 16.2026 18.3638C16.2758 18.4366 16.2956 18.5183 16.314 18.5938L16.314 18.5938L16.314 18.5938C16.3275 18.6492 16.3402 18.7013 16.3725 18.7441C16.4489 18.8454 16.5258 19.1494 16.5258 19.1494L16.5372 19.403V19.6305C16.5372 19.6305 17.0963 19.5547 17.1976 19.5292C17.299 19.5037 17.6954 19.3261 17.7962 19.2253C17.8416 19.1796 17.8627 19.1391 17.8834 19.0992C17.909 19.0501 17.9341 19.0019 18.0035 18.9462C18.1308 18.8454 18.3615 18.6672 18.3615 18.6672L18.3365 18.2874L18.6421 17.8827L18.8707 17.6541C18.8707 17.6541 19.0728 17.3756 19.0478 17.2742C19.0229 17.1729 18.972 16.6658 18.972 16.6658C18.972 16.6658 19.0738 16.4377 19.1497 16.3364C19.1769 16.2996 19.1944 16.2596 19.2128 16.2176C19.2454 16.1431 19.2808 16.0622 19.3778 15.9815C19.5064 15.8749 19.5983 15.7497 19.6698 15.6523C19.6829 15.6344 19.6953 15.6174 19.7072 15.6017L19.7232 15.5803C19.8028 15.4741 19.9386 15.2927 19.9857 15.2219C20.0361 15.1455 20.0875 14.918 20.0875 14.918L19.6303 14.9938C19.5418 14.846 19.3583 14.595 19.2057 14.3861C19.0965 14.2368 19.0031 14.109 18.9715 14.056C18.8956 13.9292 18.8198 13.6756 18.7943 13.5743C18.7783 13.5108 18.722 13.3764 18.6761 13.2666L18.6761 13.2666L18.6761 13.2666C18.6491 13.2021 18.6257 13.1462 18.6161 13.1181C18.5979 13.0628 18.4989 12.9263 18.4269 12.8271L18.4269 12.8271L18.4269 12.8271L18.4268 12.827C18.4002 12.7903 18.3773 12.7588 18.3636 12.7383C18.3339 12.6938 18.2611 12.6579 18.1855 12.6205C18.1315 12.5939 18.076 12.5665 18.0336 12.5347C17.9323 12.4588 17.299 12.332 17.299 12.332ZM19.9605 17.2239C19.9605 17.2998 19.935 17.5029 19.9095 17.6042C19.8989 17.645 19.8845 17.698 19.8694 17.7534L19.8694 17.7535C19.847 17.836 19.8231 17.9236 19.8082 17.9835C19.7828 18.0854 19.656 18.288 19.5806 18.3389C19.5501 18.3594 19.5113 18.3963 19.4709 18.4347L19.4708 18.4347C19.4108 18.4917 19.3472 18.5521 19.3022 18.567C19.2263 18.5925 19.1749 18.3893 19.2003 18.288C19.2263 18.1867 19.3526 17.9082 19.3526 17.9082C19.3526 17.9082 19.378 17.7565 19.403 17.6546C19.4289 17.5538 19.7329 17.4271 19.7329 17.4271L19.936 17.0468C19.936 17.0473 19.9368 17.051 19.9381 17.0572C19.9439 17.085 19.9605 17.1632 19.9605 17.2239ZM8.85931 15.805C8.79333 15.7463 8.74657 15.7224 8.71383 15.7141C9.01778 17.0478 9.7187 18.2283 10.6851 19.1308C10.7445 19.1471 10.7801 19.134 10.8178 19.1201C10.8451 19.1101 10.8734 19.0996 10.9127 19.0996C11.013 19.0996 11.1657 18.9723 11.1657 18.9723L11.0639 18.6684L11.1657 18.2886L11.2925 17.9342C11.2925 17.9342 11.2925 17.6807 11.1657 17.6547C11.0993 17.6416 11.005 17.5727 10.9193 17.5101C10.8415 17.4533 10.7708 17.4016 10.7345 17.4016C10.6586 17.4016 10.5318 17.3512 10.456 17.3003C10.4305 17.2832 10.3963 17.2661 10.3604 17.2481C10.2894 17.2126 10.2113 17.1735 10.1775 17.1231C10.1266 17.0462 10.0502 16.9205 9.99979 16.7932C9.99112 16.7713 9.98469 16.7532 9.97896 16.737C9.95138 16.6592 9.93989 16.6268 9.77169 16.4383C9.65 16.3013 9.61985 16.2651 9.58189 16.2412C9.55681 16.2255 9.52832 16.2152 9.46774 16.1848C9.39464 16.1481 9.34489 16.1118 9.29896 16.0783C9.24923 16.0419 9.20396 16.0089 9.13833 15.9822C9.01155 15.9307 8.95492 15.8881 8.85931 15.805Z" fill="white"/>
</g>
<defs>
<clipPath id="clip0_215_779">
<rect width="29" height="29" fill="white" transform="translate(0.867188 0.219482)"/>
</clipPath>
</defs>
</svg>

<svg xmlns="http://www.w3.org/2000/svg" width="30" height="30" fill="none"><g clip-path="url(#a)"><path fill="#014C69" d="M29.766 14.22c0 8.008-6.492 14.5-14.5 14.5s-14.5-6.492-14.5-14.5c0-8.009 6.492-14.5 14.5-14.5s14.5 6.491 14.5 14.5Z"/><path fill="#fff" fill-rule="evenodd" d="M7.904 14.22c0-4.06 3.303-7.361 7.361-7.361 4.06 0 7.361 3.302 7.361 7.36 0 4.06-3.302 7.361-7.36 7.361-4.06 0-7.362-3.302-7.362-7.36Zm14.073.289c.007-.096.013-.192.013-.29a6.72 6.72 0 0 0-3.163-5.694c-.02.01-.041.024-.064.038-.105.064-.239.146-.297.087-.076-.076-.254-.186-.254-.186.153-.102-.304-.27-.304-.27l-.532.042h-.38a.746.746 0 0 1-.134-.022c-.07-.015-.15-.032-.22-.032-.089 0-.265.057-.397.1a2.593 2.593 0 0 1-.136.041c-.04.01-.1.036-.165.065-.097.043-.205.09-.266.09-.1 0-.253.191-.253.191s-.177.324-.025.273c.152-.05.355-.053.38.023l.048.133c.02.052.04.105.053.144.025.076.38.1.38.1s.05-.126.127-.228c.075-.101.151-.228.151-.228s.127.254.153.33c.024.076-.051.304-.051.304s-.279.177-.355.177c-.077 0-.508-.38-.508-.38-.152.05-.278.127-.278.127-.178.177-.355.33-.355.33s-.153.05-.254.126c-.046.034-.115.056-.183.078-.083.026-.165.052-.198.1-.126.176.049.303.049.303l-.156.203-.109.076-.37.076-.222.038c.025.076-.024.317-.024.317v.43s.365.1.442.1l.04.002c.089.004.239.01.325-.077.1-.101.266-.33.316-.405a.478.478 0 0 1 .272-.203.445.445 0 0 0 .169-.1c.026-.022.048-.041.08-.052.076-.025.375-.076.375-.076s.176.127.251.178c.009.006.01.015.013.026.006.036.017.096.258.154v.2l.337-.025-.153-.203-.026-.006-.293-.298-.022-.228s.312.178.413.228c.102.05.318.203.318.203l.15.354.203.247c-.068-.084-.236-.323.026-.323 0 0 .24.025.317 0a1.57 1.57 0 0 0 .245-.101c.05-.025.041-.08.032-.144-.01-.068-.022-.146.03-.211a.642.642 0 0 1 .309-.203c.076-.025.331-.152.331-.152l.28.05c-.125.102-.277.254-.176.229.102-.026.33.101.431.177.102.076.026.254.026.254s-.279-.026-.456-.051c-.177-.025-.456.025-.456.025l-.228.127s-.152.05-.127.177c.025.127.127.28.228.405l.065.088c.07.098.13.18.188.14.077-.05.33-.202.33-.202s-.051.177-.025.304c.025.126.025.304.025.304s-.253 0-.177.051c.057.038.132.157.185.24.017.026.031.05.042.064.254.355.786 1.14.837 1.242.02.043.029.095.037.147.01.07.021.14.064.182.152.152.456 0 .532-.05.023-.016.064-.04.112-.066.105-.059.24-.136.293-.188a.768.768 0 0 1 .06-.057l.06-.04.084-.055c.151-.101.252-.177.177-.253-.076-.076-.228-.355-.228-.355-.23.05-.457-.076-.457-.152s-.202-.38-.202-.38.025-.05.202.05c.068.039.131.092.193.143.1.084.195.162.29.162.14 0 .215.043.367.13l.037.022c.098.056.166.12.223.174.047.044.087.082.132.105.102.05.254.254.254.254s.152.354.177.456c.011.044.046.126.081.21.02.045.039.091.055.133l.006-.093ZM9.9 10.254a.163.163 0 0 1-.027.08c-.032.058-.068.124.027.3.177.33.025.482.025.482s-.431.304-.507.355c-.076.05-.279.33-.152.253.126-.076.278-.152.152.05l-.132.205a3.926 3.926 0 0 0-.273.455 1.396 1.396 0 0 1-.114.193c-.088.135-.19.293-.19.39 0 .067-.02.162-.04.26-.025.124-.05.252-.036.324.017.088-.04.348-.083.455a6.671 6.671 0 0 1 1.305-3.811c.026.002.045.009.045.009Zm2.962-2.309a6.737 6.737 0 0 0-2.148 1.337v.002c-.012.03-.022.057-.03.083-.025.102.179.025.179.025l.227.102.28-.102s.076-.152.252-.278c.128-.091.151-.13.182-.182a.72.72 0 0 1 .047-.072c.037-.05.038-.05.069-.081a9.28 9.28 0 0 0 .26-.273c.33-.356.507-.355.507-.355s.096-.104.175-.206Zm.89 1.929-.101-.152.1-.228.245.098v-.453l.233-.126.194.279.298.33-.198.151-.527.101v-.268l-.244.268Zm3.548 2.458s-.194-.123-.253-.076c-.254.203-.837.076-.962.025-.128-.051-.204-.127-.204-.203 0-.076-.114-.444-.114-.444s-.247.044-.323.044c-.076 0-.275-.08-.275-.08s-.253.025-.354.076c-.1.05-.303.126-.379.151-.076.026-.278.05-.278.05-.228-.1-.405.152-.457.254-.02.04-.048.073-.074.104-.04.046-.077.088-.077.15 0 .101-.178.253-.254.303l-.064.04c-.112.07-.305.188-.366.29a1.407 1.407 0 0 0-.178.406c-.025.126-.025.228-.025.405 0 .063-.003.117-.006.167-.006.09-.01.166.006.265.025.15.279.531.38.658.101.127.228.279.355.355.126.076.304.228.304.228s.101.152.303.076c.085-.032.17-.05.252-.069.116-.025.228-.05.332-.109.178-.1.457-.228.457-.076 0 .152.1.254.252.203l.08-.028c.146-.055.322-.12.3.028-.015.113.01.246.03.355.011.062.021.116.021.153 0 .02 0 .04-.002.06-.004.08-.008.157.053.218.023.024.06.052.098.083.085.067.181.144.181.196 0 .075.025.329.076.43.05.102.1.254.05.356-.05.1-.153.38-.153.38s-.053.227-.027.303a.75.75 0 0 0 .199.305c.073.073.093.154.111.23a.396.396 0 0 0 .058.15c.077.101.154.405.154.405l.011.254v.228s.56-.076.66-.102c.102-.025.498-.203.6-.304a.46.46 0 0 0 .086-.126c.026-.049.051-.097.12-.153l.358-.279-.024-.38.305-.404.229-.229s.202-.278.177-.38c-.025-.101-.076-.608-.076-.608s.102-.228.178-.33c.027-.036.044-.076.063-.118.032-.075.068-.156.165-.236.128-.107.22-.232.292-.33l.037-.05.016-.022c.08-.106.216-.287.263-.358.05-.076.101-.304.101-.304l-.457.076c-.088-.148-.272-.399-.424-.608a6.841 6.841 0 0 1-.235-.33 2.28 2.28 0 0 1-.177-.482c-.016-.063-.072-.198-.118-.307-.027-.065-.05-.12-.06-.149a1.862 1.862 0 0 0-.19-.29v-.001c-.026-.037-.049-.068-.062-.089-.03-.044-.103-.08-.178-.117a.992.992 0 0 1-.152-.086c-.102-.076-.735-.203-.735-.203Zm2.662 4.892a2.238 2.238 0 0 1-.092.53c-.022.082-.046.17-.06.23-.026.101-.153.304-.228.355-.03.02-.07.057-.11.096a.635.635 0 0 1-.169.132c-.076.026-.127-.178-.102-.279.026-.101.153-.38.153-.38s.025-.152.05-.253c.026-.101.33-.228.33-.228l.203-.38.002.01c.006.028.023.106.023.167ZM8.858 15.805a.373.373 0 0 0-.145-.09 6.719 6.719 0 0 0 1.971 3.416.19.19 0 0 0 .133-.01c.027-.01.055-.021.095-.021.1 0 .253-.128.253-.128l-.102-.304.102-.38.127-.354s0-.253-.127-.28c-.067-.012-.161-.081-.247-.144-.078-.057-.148-.108-.184-.108a.62.62 0 0 1-.279-.102c-.025-.017-.06-.034-.096-.052-.07-.035-.149-.075-.182-.125a1.913 1.913 0 0 1-.199-.386c-.028-.078-.04-.11-.207-.299-.122-.137-.152-.173-.19-.197-.025-.015-.054-.026-.114-.056-.073-.037-.123-.073-.169-.107a.71.71 0 0 0-.16-.096.847.847 0 0 1-.28-.177Z" clip-rule="evenodd"/></g><defs><clipPath id="a"><path fill="#fff" d="M.867.22h29v29h-29z"/></clipPath></defs></svg>
